X: 63
Q: "Slow"
P: No. LXIII.
M: 3/4
L: 1/8
K: Gm
V: 1
|:\
c4 AG | ^F2 A3 G | ^F3 E F2 | D6 |\
d4 A2 | c4 d=e |\
f2 =e2 d2 | c2 A2 (G^F) | G6- | G6 :|\
|:\
g4 ^f2 | g2 a2 b2 | a4 gf | Td4 d=e |\
f3 gfg |
f2 d2 f2 | Tc4 {B}A2 | T^F4 {E}D2 |\
f2=e2 d2 | c2 A2 (G^F) | G6- | G6 :|
V: 2 clef=bass middle=d
|:\
a2 A2 c2 | d2 ^c4 | d6 | d2 dcBA | G4 A2 | B2 c2 e2 |
d4 z2 | a3 gf=e | d2 c2 B2 | A2 d2 D2 | G2 B2 d2 | g2 G4 :|\
|:\
b2 b2 b2 | a2 A2 c2 | d2 d'2 c'2 | b3 c'ba | g2 f2 e2 |\
d3 d'c'b | a2 f3 =e | d2 c2 B2 | c2 d2 D2 | G2 B2 d2 | g2 G2 z2 :|

